X:140
T:Sonata K.159 in C Major
C:Scarlatti, D.
M:3/4
L:1/16
Q:1/4=92
K:C
|:C4G4 c4G4|A4G4 F4E4|D4C4 D4E4|F8 G4z4|
c4B4 A4G4|F4E4 D4C4|B,4C4 D4E4|C8 z8:|

